X:1
T:Nutbourne, 77.77.77
T:Theodore Edward Aylward, 1869
T:Nutbourne, 77.77.77
T:Public Domain
C:Theodore Edward Aylward, 1869
Z:Public Domain
%%score ( 1 2 ) ( 3 4 )
L:1/8
M:4/4
K:A
V:1 treble 
V:2 treble 
V:3 bass 
V:4 bass 
V:1
 E2 E2 | [CA]2 [CA]2 [EB]2 [Ec]2 | [Fd]4 [Ec]2 [EB]2 | [Ee]2 [FA]2 [GB]2 [Ac]2 | %4
 [GB]4 [Ad]2 [Ee]2 | [Ec]2 [Ec]2 [FB]2 [^Ec]2 | [FA]4 [FA]2 [FB]2 | [EG]2 [EG]2 [EF]2 [^DF]2 | %8
 E4 [Ee]2 [Ee]2 | [Fd]2 [Dd]2 [=Gc]2 [Fc]2 | [DB]4 [EG]2 [CA]2 | [FB]2 [Ec]2 [Fd]2 [GB]2 | A4 |] %13
V:2
 E2 E2 | x8 | x8 | x8 | x8 | x8 | x8 | x8 | E4 x4 | x8 | x8 | x8 | A4 |] %13
V:3
 [A,C]2 [G,B,]2 | [F,A,]2 [F,A,]2 [E,G,]2 [E,G,]2 | [D,A,]4 [A,,A,]2 [E,G,]2 | %3
 [C,A,]2 [D,A,]2 [B,,D]2 (CD) | [E,E]4 [F,D]2 [G,B,]2 | A,2 [A,,A,]2 [D,F,]2 [C,G,]2 | %6
 [F,A,]4 [F,C]2 [B,,^D]2 | [C,E]2 [G,,B,]2 [A,,C]2 [B,,B,]2 | [E,G,]4 [C,G,]2 [C,^A,]2 | %9
 [B,,B,]2 [=G,B,]2 [E,B,]2 [F,^A,]2 | [B,,B,]4 [E,B,]2 [F,A,]2 | [D,F,]2 [C,A,]2 [B,,D]2 [E,D]2 | %12
 [A,,C]4 |] %13
V:4
 x4 | x8 | x8 | x6 A,,2 | x8 | A,2 x6 | x8 | x8 | x8 | x8 | x8 | x8 | x4 |] %13

